logo/maildeveloper.svg

<?xml version="1.0" encoding="UTF-8"?>
<svg width="256px" height="159px" viewBox="0 0 256 159" version="1.1" xmlns="http://www.w3.org/2000/svg" xmlns:xlink="http://www.w3.org/1999/xlink">
    <title>Group</title>
    <defs>
        <linearGradient x1="50%" y1="33.756%" x2="1.66533454e-14%" y2="100%" id="linearGradient-1">
            <stop stop-color="#60676F" offset="0%"></stop>
            <stop stop-color="#303439" offset="100%"></stop>
        </linearGradient>
    </defs>
    <g stroke="none" stroke-width="1" fill="none" fill-rule="evenodd">
        <g fill-rule="nonzero">
            <polygon fill="#393E42" points="21.3308235 158.117647 21.3308235 115.952941 149.330824 115.952941 149.330824 158.117647"></polygon>
            <path d="M0,158.117647 L0,0 L42.6691765,0 L85.3308235,42.1647059 L128,0 L170.669176,0 C170.669176,0 256,0 256,79.0588235 C256,158.117647 170.669176,158.117647 170.669176,158.117647 L128,158.117647 L128,52.7058824 L85.3308235,94.8705882 L42.6691765,52.7058824 L42.6691765,158.117647 L0,158.117647 Z M170.669176,42.1647059 L170.669176,115.952941 C170.669176,115.952941 212.457412,115.952941 213.330824,79.0588235 C214.211765,42.1647059 170.669176,42.1647059 170.669176,42.1647059 Z" fill="#60676F"></path>
            <path d="M252.754824,54.3698824 C254.825412,61.5981176 256,69.7825882 256,79.0588235 C256,158.117647 170.669176,158.117647 170.669176,158.117647 L170.669176,21.0823529 C170.669176,21.0823529 222.034824,29.8691765 252.754824,54.3698824 Z M170.669176,42.1647059 L170.669176,115.952941 C170.669176,115.952941 212.457412,115.952941 213.330824,79.0588235 C214.211765,42.1647059 170.669176,42.1647059 170.669176,42.1647059 Z" fill="url(#linearGradient-1)"></path>
        </g>
    </g>
</svg>

<svg viewBox="0 0 256 159" xmlns="http://www.w3.org/2000/svg"><defs><linearGradient id="a" x1="50%" x2="0%" y1="33.756%" y2="100%"><stop offset="0%" stop-color="#60676F"/><stop offset="100%" stop-color="#303439"/></linearGradient></defs><path fill="#393E42" d="M21.33 158.11l0-42.17 128 0 0 42.16Z"/><path fill="#60676F" d="M0 158.11V-.01h42.66l42.66 42.16L127.98-.02h42.66s85.33 0 85.33 79.05 -85.34 79.05-85.34 79.05h-42.67V52.66L85.29 94.82 42.62 52.65v105.41H-.05ZM170.66 42.15v73.78s41.78 0 42.66-36.9c.88-36.9-42.67-36.9-42.67-36.9Z"/><path fill="url(#a)" d="M252.75 54.36c2.07 7.22 3.24 15.41 3.24 24.68 0 79.05-85.34 79.05-85.34 79.05V21.05s51.36 8.78 82.08 33.28Zm-82.09-12.21v73.78s41.78 0 42.66-36.9c.88-36.9-42.67-36.9-42.67-36.9Z"/></svg>
